!!!COM: Augusta Holme\s
!!!CNT: Francais
!!!TXO: Francais
!!!OTL: "Noe2l"
!!!LYR: 
!!!OPR: Noe2l
!!!OPS: Op. 
!!!ONM: No. 
!!!ENC: Alyona Dzerbina
!!!YOR: Augusta Holme\s, Noe2l
!!!YOR: Da Capo Press, New York, 1984
!!!ODT: 1885/
!!NB: Vocal melody and text encoded.
**kern	**text
*staff1	*staff1
=1-	=1-
*clefG2	*
*k[b-e-a-d-g-]	*
*met(C)	*
*M4/4	*
*MM90	*
4r	.
4r	.
4r	.
{4d-	{Trois
=2	=2
4a-	an-
4f	-ges
4g-	sont
4b-	ve-
=3	=3
4a-	-nus
4f	ce
4d-	soir
8d-	M'ap-
8e-	-por-
=4	=4
4f	-ter
4a-	de
4f	bien
8e-	bel-
8d-	-les
=5	=5
2e-	cho-
4f}	-ses;}
{4d-	{L'un
=6	=6
4a-	d'eux
4f	a-
4g-	-vait
4b-	un
=7	=7
4a-	un-
4f	-cen-
4d-	-soir,
8e-	Lau-
8f	-trea-
=8	=8
4e-	-vait
8a-	un
8b-	cha-
4cc	-peau
4ee-	de
=9	=9
(2b-	ro-
4a-)}	-ses,}
{4a-	{Et
=10	=10
4b-	le
4dd-	troi-
4cc	-sie\me
8b-	a-
8a-	|
=11	=11
4b-	-vait
4dd-	en
4cc	main
(8b-	U-
8a-)	-ne
=12	=12
4dd-	ro-
4a-	-be
4f	tou-
8e-	-te
8d-	fleu-
=13	=13
2a-	-ri-
4a-}	-e}
{4a-	{De
=14	=14
4b-	per-
4dd-	-les,
4cc	d'or
8b-	el
8a-	|
=15	=15
4b-	de
4dd-	jas-
4cc}	-min,}
{(8b-	{Comme-
8a-)	-en
=16	=16
4dd-	a
4a-	Ma-
4f	-da-
8e-	-me
8d-	Ma-
=17	=17
2a-	-ri-
4a-	-e!
4a-	No-
=18	=18
4b-	-e2l!
4dd-	No-
4a-	-e2l!
8f	Nous
8a-	ve-
=19	=19
4b-	-nons
4dd-	du
4a-}	ciel}
{8d-	{T'ap-
8e-	-por-
=20	=20
4f	-ter
4a-	ce
4f	que
8e-	tu
8d-	de/-
=21	=21
2e-	-si-
4f	-res,
4a-	Car
=22	=22
4b-	le
4dd-	bon
4a-	Dieu
8f	Au
8a-	fond
=23	=23
4b-	du
4dd-	ciel
4ee-}	bleu}
{8b-	{Est
8dd-	cha-
=24	=24
4a-	-grin
8d-	lors-
8e-	-que
4f	tu
4a-	sou-
=25	=25
(2e-	-pi-
4d-)}	-res!}
4r	.
=26	=26
1r	.
=27	=27
1r	.
=28	=28
1r	.
=29	=29
1r	.
=30	=30
4r	.
4r	.
4r	.
{4d-	{Veux-
=31	=31
4a-	-tu
4f	le
4g-	bel
4b-	en-
=32	=32
4a-	-cen-
4f	-soir
4d-	d'or,
8d-	Ou
8e-	la
=33	=33
4f	rose
4a-	e/-
4f	-close
8e-	en
8d-	cou-
=34	=34
2e-	-ron-
4f}	-ne?}
{4d-	{Veux-
=35	=35
4a-	-tu
4f	la
4g-	robe,
4b-	ou
=36	=36
4a-	bien
4f	en-
4d-	-cor
8e-	Un
8f	col-
=37	=37
4e-	-lier
8a-	ou\
8b-	l'ar-
4cc	-gent
4ee-	fleu-
=38	=38
2b-	-ron-
4a-}	-ne?}
{4a-	{Veux-
=39	=39
4b-	-tu
4dd-	des
4cc	fruits
(8b-	du
8a-)	|
=40	=40
4b-	Pa-
4dd-	-ra-
4cc	-dis
8b-	Ou
8a-	du
=41	=41
4dd-	ble/-
8a-	-des
8a-	|
4f	ce/les-
(8e-	-tes
8d-)	|
=42	=42
2a-	gran-
4a-}	-ges?}
{4a-	{Ou
=43	=43
4b-	com-
4dd-	-me
4cc	les
(8b-	ber-
8a-)	|
=44	=44
4b-	-gers,
4dd-	ja-
4cc	-dis,
8b-	Veux-
8a-	-tu
=45	=45
4dd-	voir
4a-	Je-
4f	-sus
8e-	dans-
8d-	-ses
=46	=46
2a-	lan-
4a-}	-ges?}
{4a-	{No-
=47	=47
4b-	-e2l!
4dd-	No-
4a-	-e2l!
8f	Re-
8a-	-tour-
=48	=48
4b-	-nez
4dd-	au
4a-	ciel,
8d-	Mes
8e-	beaux
=49	=49
4f	an-
4a-	-ges,
4f	a\
8e-	l'ins-
8d-	-tant
=50	=50
2e-	me^-
8f}	-me;}
8r	.
{4a-	{Dans
=51	=51
4b-	le
4dd-	ciel
4a-	bleu
8f	De-
8a-	-man-
=52	=52
4b-	-dez
4dd-	a\
4ee-}	Dieu}
{8b-	{Le
8dd-	bon-
=53	=53
4a-	-heur
8d-	pour-
8e-	-ce-
4f	-lui
4a-	que
=54	=54
(2e-	j'ai-
4d-)}	-me!}
4r	.
=55	=55
1r	.
=56	=56
1r	.
=57	=57
1r	.
=58	=58
1r	.
==	==
*-	*-
